app/dist/common/images/ev-digital-invest-ag.svg

<svg height="18" viewBox="0 0 18 18" width="18" xmlns="http://www.w3.org/2000/svg"><path d="m0 0h18v18h-18z" fill="#f0f3fa"/><path d="m6 7h-3v4h3v-.75h-2.18v-1h2.18v-.75h-2.18v-.75h2.18zm7 3.28 1.15-3.28h.85l-1.4 4h-1.2l-1.4-4h.85z"/><path d="m11 11h-1.04l-.35-.47a2.1 2.1 0 0 1 -1.21.47c-.68 0-1.4-.4-1.4-1.15 0-.6.63-1.02.95-1.16a1.21 1.21 0 0 1 -.38-.79c0-.55.68-.9 1.12-.9s1.17.22 1.17.9c0 .55-.5.92-.76 1.04l.55.58c.11-.13.15-.42.15-.52h.76c0 .44-.28.88-.42 1.01zm-1.83-.99-.74-.82c-.56.29-.57.52-.57.67s.09.51.57.51c.38 0 .65-.24.74-.36zm-.47-1.51c.16-.09.42-.36.42-.6 0-.31-.26-.4-.42-.4-.15 0-.4.13-.4.4 0 .16.28.48.4.6z" fill="#f70102"/></svg>

<!-- by TradingView --><svg width="18" height="18" viewBox="0 0 18 18" xmlns="http://www.w3.org/2000/svg"><path fill="#F0F3FA" d="M0 0h18v18H0z"/><path d="M6 7H3v4h3v-.75H3.82v-1H6V8.5H3.82v-.75H6V7ZM13 10.28 14.15 7H15l-1.4 4h-1.2L11 7h.85L13 10.28Z"/><path d="M11 11H9.96l-.35-.47A2.1 2.1 0 0 1 8.4 11C7.72 11 7 10.6 7 9.85c0-.6.63-1.02.95-1.16a1.21 1.21 0 0 1-.38-.79c0-.55.68-.9 1.12-.9.44 0 1.17.22 1.17.9 0 .55-.5.92-.76 1.04l.55.58c.11-.13.15-.42.15-.52h.76c0 .44-.28.88-.42 1.01L11 11Zm-1.83-.99-.74-.82c-.56.29-.57.52-.57.67 0 .15.09.51.57.51.38 0 .65-.24.74-.36ZM8.7 8.5c.16-.09.42-.36.42-.6 0-.31-.26-.4-.42-.4-.15 0-.4.13-.4.4 0 .16.28.48.4.6Z" fill="#F70102"/></svg>
